Catalina-light/status/22/launcher2.svg

<?xml version="1.0" encoding="UTF-8" standalone="no"?>
<svg
   xmlns:dc="http://purl.org/dc/elements/1.1/"
   xmlns:cc="http://creativecommons.org/ns#"
   xmlns:rdf="http://www.w3.org/1999/02/22-rdf-syntax-ns#"
   xmlns:svg="http://www.w3.org/2000/svg"
   xmlns="http://www.w3.org/2000/svg"
   xmlns:sodipodi="http://sodipodi.sourceforge.net/DTD/sodipodi-0.dtd"
   xmlns:inkscape="http://www.inkscape.org/namespaces/inkscape"
   width="22"
   viewBox="0 0 22 22"
   version="1.1"
   height="22"
   id="svg4"
   sodipodi:docname="launcher2.svg"
   inkscape:version="0.92.4 (5da689c313, 2019-01-14)">
  <metadata
     id="metadata10">
    <rdf:RDF>
      <cc:Work
         rdf:about="">
        <dc:format>image/svg+xml</dc:format>
        <dc:type
           rdf:resource="http://purl.org/dc/dcmitype/StillImage" />
        <dc:title></dc:title>
      </cc:Work>
    </rdf:RDF>
  </metadata>
  <defs
     id="defs8" />
  <sodipodi:namedview
     pagecolor="#ffffff"
     bordercolor="#666666"
     borderopacity="1"
     objecttolerance="10"
     gridtolerance="10"
     guidetolerance="10"
     inkscape:pageopacity="0"
     inkscape:pageshadow="2"
     inkscape:window-width="1920"
     inkscape:window-height="1022"
     id="namedview6"
     showgrid="false"
     inkscape:pagecheckerboard="true"
     inkscape:zoom="15.706089"
     inkscape:cx="-4.1374019"
     inkscape:cy="6.4317475"
     inkscape:window-x="0"
     inkscape:window-y="30"
     inkscape:window-maximized="1"
     inkscape:current-layer="svg4" />
  <rect
     style="opacity:1;fill:#f2f2f2;fill-opacity:1;stroke:none;stroke-width:1.77142787;stroke-linecap:round;stroke-miterlimit:4;stroke-dasharray:none;stroke-opacity:1"
     id="rect884"
     width="2.7845633"
     height="2.6198077"
     x="0.83662391"
     y="4.7455449"
     rx="0"
     ry="0" />
  <rect
     ry="0"
     rx="0"
     y="9.7548466"
     x="0.83662391"
     height="2.6198077"
     width="2.7845633"
     id="rect886"
     style="opacity:1;fill:#f2f2f2;fill-opacity:1;stroke:none;stroke-width:1.77142787;stroke-linecap:round;stroke-miterlimit:4;stroke-dasharray:none;stroke-opacity:1" />
  <rect
     style="opacity:1;fill:#f2f2f2;fill-opacity:1;stroke:none;stroke-width:1.77142787;stroke-linecap:round;stroke-miterlimit:4;stroke-dasharray:none;stroke-opacity:1"
     id="rect888"
     width="2.7845633"
     height="2.6198077"
     x="0.83662391"
     y="14.764149"
     rx="0"
     ry="0" />
  <path
     style="opacity:1;fill:#f2f2f2;fill-opacity:1;stroke:none;stroke-width:1.77142787;stroke-linecap:round;stroke-miterlimit:4;stroke-dasharray:none;stroke-opacity:1"
     d="M 5.0593688,4.745545 H 20.206171 V 7.3653527 H 5.0593688 Z"
     id="rect890"
     inkscape:connector-curvature="0"
     sodipodi:nodetypes="ccccc" />
  <path
     style="opacity:1;fill:#f2f2f2;fill-opacity:1;stroke:none;stroke-width:1.77142787;stroke-linecap:round;stroke-miterlimit:4;stroke-dasharray:none;stroke-opacity:1"
     d="M 5.0593688,9.7548464 H 13.474259 V 12.374653 H 5.0593688 Z"
     id="rect892"
     inkscape:connector-curvature="0"
     sodipodi:nodetypes="ccccc" />
  <path
     style="opacity:1;fill:#f2f2f2;fill-opacity:1;stroke:none;stroke-width:1.77142787;stroke-linecap:round;stroke-miterlimit:4;stroke-dasharray:none;stroke-opacity:1"
     d="M 5.0593688,14.764148 H 20.206171 v 2.619808 H 5.0593688 Z"
     id="rect894"
     inkscape:connector-curvature="0"
     sodipodi:nodetypes="ccccc" />
</svg>

<svg width="22" height="22" version="1.1" viewBox="0 0 22 22" xmlns="http://www.w3.org/2000/svg">
<rect x=".83662" y="4.7455" width="2.7846" height="2.6198" rx="0" ry="0" fill="#f2f2f2"/>
<rect x=".83662" y="9.7548" width="2.7846" height="2.6198" rx="0" ry="0" fill="#f2f2f2"/>
<rect x=".83662" y="14.764" width="2.7846" height="2.6198" rx="0" ry="0" fill="#f2f2f2"/>
<path d="m5.0594 4.7455h15.147v2.6198h-15.147z" fill="#f2f2f2"/>
<path d="m5.0594 9.7548h8.4149v2.6198h-8.4149z" fill="#f2f2f2"/>
<path d="m5.0594 14.764h15.147v2.6198h-15.147z" fill="#f2f2f2"/>
</svg>
